/* XPM */
static char *Web_Photo_Editor1741869816[] = {
/* columns rows colors chars-per-pixel */
"64 64 161 2 ",
"   c #2E1F18",
".  c #361E15",
"X  c #391E16",
"o  c #321F19",
"O  c #391E1A",
"+  c #23221E",
"@  c #332115",
"#  c #372018",
"$  c #262624",
"%  c #282725",
"&  c #272824",
"*  c #292A25",
"=  c #292729",
"-  c #2B2B29",
";  c #392A23",
":  c #312F2C",
">  c #2F302B",
",  c #33332E",
"<  c #343431",
"1  c #3A3532",
"2  c #373934",
"3  c #393A35",
"4  c #3E3C3A",
"5  c #442116",
"6  c #4C2B1D",
"7  c #522415",
"8  c #59281A",
"9  c #4D2D21",
"0  c #4B342E",
"q  c #433F3E",
"w  c #663725",
"e  c #6A3223",
"r  c #663A26",
"t  c #6B3A26",
"y  c #633E2A",
"u  c #6C3D2B",
"i  c #723D27",
"p  c #763D29",
"a  c #793C2A",
"s  c #45453D",
"d  c #49493F",
"f  c #63412B",
"g  c #684235",
"h  c #714636",
"j  c #7C4C34",
"k  c #7C4E39",
"l  c #74503A",
"z  c #444241",
"x  c #484742",
"c  c #494943",
"v  c #4F4B48",
"b  c #514E49",
"n  c #55554D",
"m  c #565551",
"M  c #595553",
"N  c #5F5C57",
"B  c #5E5C58",
"V  c #765443",
"C  c #785341",
"Z  c #605C57",
"A  c #615C59",
"S  c #66625D",
"D  c #68635F",
"F  c #6A6663",
"G  c #6E6A64",
"H  c #746C6A",
"J  c #786E6C",
"K  c #747266",
"L  c #75746B",
"P  c #7A756E",
"I  c #7B786F",
"U  c #7C7571",
"Y  c #7C7872",
"T  c #835437",
"R  c #8D5437",
"E  c #85553D",
"W  c #8D553C",
"Q  c #85583B",
"!  c #8C593D",
"~  c #915539",
"^  c #90583F",
"/  c #845A44",
"(  c #8B5941",
")  c #8C6444",
"_  c #8B624C",
"`  c #956243",
"'  c #976C4C",
"]  c #9A6D4D",
"[  c #9A704D",
"{  c #966E54",
"}  c #9A6D51",
"|  c #9B7051",
" . c #A5754F",
".. c #A9754F",
"X. c #A67653",
"o. c #A87653",
"O. c #A57A56",
"+. c #AF7955",
"@. c #A57658",
"#. c #AA7758",
"$. c #A67A59",
"%. c #AA7D5A",
"&. c #B17955",
"*. c #B37358",
"=. c #847A76",
"-. c #867C7A",
";. c #A97D60",
":. c #AF825F",
">. c #AE8662",
",. c #B38762",
"<. c #BC8863",
"1. c #B1876E",
"2. c #BE8769",
"3. c #B2896D",
"4. c #BB8C69",
"5. c #BD926A",
"6. c #B28870",
"7. c #BD8F75",
"8. c #BD9074",
"9. c #BE9078",
"0. c #C3966D",
"q. c #C5996F",
"w. c #C69A75",
"e. c #CC9F76",
"r. c #C09278",
"t. c #C69E7B",
"y. c #CA9F7C",
"u. c #CEA37B",
"i. c #D2A77C",
"p. c #D2A87C",
"a. c #8F8E81",
"s. c #908E83",
"d. c #978C88",
"f. c #9E948F",
"g. c #9E9491",
"h. c #9E9993",
"j. c #A0958F",
"k. c #A39592",
"l. c #A39894",
"z. c #A9A39B",
"x. c #B7AEA9",
"c. c #B9AFAB",
"v. c #B5B0AA",
"b. c #B9B0AB",
"n. c #B4B5B0",
"m. c #CEA585",
"M. c #D3A581",
"N. c #D3A984",
"B. c #DAB28F",
"V. c #E0B797",
"C. c #E2BA96",
"Z. c #E3BB98",
"A. c #E9BB9A",
"S. c #CDC2BE",
"D. c #CFC4C0",
"F. c #CDCDC1",
"G. c #D8D7D3",
"H. c gray87",
"J. c #F2F2F0",
"K. c #FBFCF7",
"L. c #000000",
/* pixels */
"L.L.L.L.L.L.L.L.L.L.L.L.L.L.L.L.L.L.L.L.L.L.L.L.L.L.L.L.L.L.L.L.L.L.L.L.L.L.L.L.L.L.L.L.L.L.L.L.L.L.L.L.L.L.L.L.L.L.L.L.L.L.L.L.",
"L.L.L.L.L.L.L.L.L.L.L.L.L.L.L.L.L.L.L.L.L.L.L.L.L.L.L., U U U Z B N N x - L.L.L.L.L.L.L.L.L.L.L.L.L.L.L.L.L.L.L.L.L.L.L.L.L.L.L.",
"L.L.L.L.L.L.L.L.L.L.L.L.L.L.L.L.L.L.L.L.L.L.L.L.: =.U Y S.k.M B c.b.M x x =.A $ L.L.L.L.L.L.L.L.L.L.L.L.L.L.L.L.L.L.L.L.L.L.L.L.",
"L.L.L.L.L.L.L.L.L.L.L.L.L.L.L.L.L.L.L.L.L.L.: k.k.k.U = k.k.Y < x.U U x $ k.U J B   L.L.L.L.L.L.L.L.L.L.L.L.L.L.L.L.L.L.L.L.L.L.",
"L.L.L.L.L.L.L.L.L.L.L.L.L.L.L.L.L.L.L.L., , k.H k.k.U Z =.k.U = U P F 4 N c.k.U M Z B $ L.L.L.L.L.L.L.L.L.L.L.L.L.L.L.L.L.L.L.L.",
"L.L.L.L.L.L.L.L.L.L.L.L.L.L.L.L.L.L.L.N U Z =.H k.k.k.A l.k.Y % P P Z x U H k.=.U b B N x L.L.L.L.L.L.L.L.L.L.L.L.L.L.L.L.L.L.L.",
"L.L.L.L.L.L.L.L.L.L.L.L.L.L.L.L.L.L.Z c.b.=.- k.k.k.k.A A A S & % % : x =.g.k.=.=.& I N N x L.L.L.L.L.L.L.L.L.L.L.L.L.L.L.L.L.L.",
"L.L.L.L.L.L.L.L.L.L.L.L.L.L.L.L.J.N v U P L B L k.Z $ & % 3 2 3 3 * % = + $ k.k.A b.L N N N x % L.L.L.L.L.L.L.L.L.L.L.L.L.L.L.L.",
"L.L.L.L.L.L.L.L.L.L.L.L.L.L.L.G.P P N c N P N x = % 3 3   6 W ! W ~ E X 3 3 = % x U B N N m N x $ L.L.L.L.L.L.L.L.L.L.L.L.L.L.L.",
"L.L.L.L.L.L.L.L.L.L.L.L.L.L.L.P P U N N * N x * 3 3 W W e ! W ! ! W W W W W 3 3 % A A , P Y N N x L.L.L.L.L.L.L.L.L.L.L.L.L.L.L.",
"L.L.L.L.L.L.L.L.L.L.L.L.L.L.Z c.U U U z N % 3 3 / W j W w W +.o.#.W W W ~ W ! w 3 % % U M P I N x x L.L.L.L.L.L.L.L.L.L.L.L.L.L.",
"L.L.L.L.L.L.L.L.L.L.L.L.L.H.U M U m P N x 3 3 ! W W E o.j X.o.o.o.o.o.o.u W W w ! 3 * N b.U U Z x x = L.L.L.L.L.L.L.L.L.L.L.L.L.",
"L.L.L.L.L.L.L.L.L.L.L.L.L.U k.k.A N B c 3 3 5 W o.o.T o.j E o.o.W o.o...o.o.W w W W q * N P x Z U Z x L.L.L.L.L.L.L.L.L.L.L.L.L.",
"L.L.L.L.L.L.L.L.L.L.L.L.< D.k.k.k.U , % 3 W 5 X.o.o.X.o.k Q o.o.o.o.o.o.o.o.o.e i W W % * x P P M Z c % L.L.L.L.L.L.L.L.L.L.L.L.",
"L.L.L.L.L.L.L.L.L.L.L.L.U S.k.k.k.N % 3 ~ o.9 o.o.o.X.i.] $.p.i.i.o.o.E o.o.o.T ! W ^ ~ * * P I U N c x L.L.L.L.L.L.L.L.L.L.L.L.",
"L.L.L.L.L.L.L.L.L.L.N = Z k.k.H k.Y % 3 o.o.9 X.X.i.i.i.[ $.p.i.i.i.i.E o.o.o.o.o.W W E . * P I P N c c $ Z L.L.L.L.L.L.L.L.L.L.",
"L.L.L.L.L.L.L.L.L.L.A P G B & B U - 3 ! o.o.9 o.i.i.p.p.V.3.Z.Z.Z.p.p.p.u.o.o...o.o.u R ! * % A x % Z H Z B L.L.L.L.L.L.L.L.L.L.",
"L.L.L.L.L.L.L.L.L.L.Y P Y Y U v x % 3  .o.o.6 i.i.Z.Z.Z.V.3.Z.Z.Z.Z.Z.p.i.p.o.o.o.o.f W ~ 3 * U D k.H M =.Z L.L.L.L.L.L.L.L.L.L.",
"L.L.L.L.L.L.L.L.L.L.v.U P P P z N * ; o.o.&.y i.Z.Z.Z.Z.Z.3.Z.Z.Z.Z.Z.3.O.O.o.o.o.o.u W R . * l.k.k.k.U U Z L.L.L.L.L.L.L.L.L.L.",
"L.L.L.L.L.L.L.L.L., v.U P Y K B x * X o.o.p.f 3.Z.Z.Z.Z.Z.m.Z.Z.Z.Z.Z.Z.Z.$.i...o.o.@.R ! O % k.k.k.k.U U Z % L.L.L.L.L.L.L.L.L.",
"L.L.L.L.L.L.L.L.L.L.L., N N N N x % X E o.i.7.3.2.Z.Z.Z.Z.A.Z.Z.3.Z.Z.Z.V.$.i.i.o.o...~ E O % A A A B A = L.L.L.L.L.L.L.L.L.L.L.",
"L.L.L.L.L.L.L.L.L.L.L.L.L.Y U I x % O E i.i.7.V.2.Z.Z.Z.Z.A.Z.Z.3.Z.Z.Z.p.i.i.i.o.o.o.^ E # % I b.I B $ L.L.L.L.L.L.L.L.L.L.L.L.",
"L.L.L.L.L.L.L.L.L.L.L.L.L.P M M c - O o.i.i.7.C.Z.Z.Z.Z.Z.Z.Z.Z.C.Z.Z.O.i.p.p.p.R W o.a u o 3 U U U N L.L.L.L.L.L.L.L.L.L.L.L.L.",
"L.L.L.L.L.L.L.L.L.L.L.L.n.$ = % * * X o.p.i.r.C.Z.Z.Z.Z.Z.Z.Z.Z.C.Z.i.i.i.+.n F.F.F.F.F.F.F.3 % $ = & - L.L.L.L.L.L.L.L.L.L.L.L.",
"L.L.L.L.L.L.L.L.L.Y Y U U P Y N x * # o.i.Z.9.Z.Z.Z.Z.Z.Z.Z.C.Z.C.[ i.i.+.F.a.a.a.a.a.s.s.K 3 Z k.k.k.k.U U Z L.L.L.L.L.L.L.L.L.",
"L.L.L.L.L.L.L.L.L.l.U U U U P M x - X o.p.Z.8.Z.Z.Z.Z.Z.Z.C.C.Z.i.' i.i.+.K s.a.n a.s.n , K 3 Z J k.k.k.=.M b L.L.L.L.L.L.L.L.L.",
"L.L.L.L.L.L.L.L.L.G U U P U U B x % X o.p.Z.8.Z.Z.Z.Z.Z.A.C.Z.i.i.] p.i.i.+.K K H K K H K K 3 U k.k.k.k.J U M L.L.L.L.L.L.L.L.L.",
"L.L.L.L.L.L.L.L.L.N U P Z N N B x - O o.u.Z.8.2.Z.Z.Z.Z.C.C.i.i.i.} i.i.i.i.N.j R W W p u g 3 U k.l.U =.U A B L.L.L.L.L.L.L.L.L.",
"L.L.L.L.L.L.L.L.L., 2 , , , = $ & * O Q u.Z.9.Z.Z.C.C.Z.Z.p.i.i.i.{ i.i.i.&.i.] X.X.*.W T R 3 % = = = = = $ $ L.L.L.L.L.L.L.L.L.",
"L.L.L.L.L.L.L.L.L.L.L.L.U S.k.k.S * . T p.B.8.Z.Z.Z.Z.Z.Z.p.i.e.i.} i.i.i.&.i.] X.o.X.W k ! 2 v c.U B x L.L.L.L.L.L.L.L.L.L.L.L.",
"L.L.L.L.L.L.L.L.L.L.L.L.Y D.k.H S * . o.+.N.8.Z.Z.Z.Z.Z.p.i.&.i.i.] i.i.i.$.i.] @.o.X.W ( R , S L U Z x L.L.L.L.L.L.L.L.L.L.L.L.",
"L.L.L.L.L.L.L.L.L.L.L.L.b k.H k.U * 5 ..+.N.9.Z.Z.Z.Z.Z.p.p.&.i.i.} $.i.p.$.p.} ..o.X.W E W % U U U N d L.L.L.L.L.L.L.L.L.L.L.L.",
"L.L.L.L.L.L.L.L.L.L.L.L.: j.l.f.P % l o.i.t.r.Z.Z.Z.V.p.i.i.&.i.i.] $.$.i.$.M.} 0.o.o.W ( W = L U M z x L.L.L.L.L.L.L.L.L.L.L.L.",
"L.L.L.L.L.L.L.L.L.L.L.L.: =.U U b % @.o.i.N.8.C.Z.V.Z.i.i.i.p.i.i.' @.$.i.5.i.} i.o.o.~ ( W = v Z Z x q L.L.L.L.L.L.L.L.L.L.L.L.",
"L.L.L.L.L.L.L.L.L.L.N N S S M v x % #.o.i.B.r.C.Z.Z.Z.i.i.i.p.i.i.} i.%.p.i.i.] i.o.o.W E W $ A S -.A S Z Z L.L.L.L.L.L.L.L.L.L.",
"L.L.L.L.L.L.L.L.L.L.U x.P P P Y c * o.F.F.F.3 Z.Z.Z.,.i.i.i.i.i.i.} i.$.i.i.p.} i.o.] W E W $ U S.k.j.=.Z Z L.L.L.L.L.L.L.L.L.L.",
"L.L.L.L.L.L.L.L.L.L.P P U P I M c 3 o.s.K s.0 Z.Z.Z.%.i.i.i.i.i.p.' u.$.i.i.i.] i.X./ ~ ! W % P k.k.k.=.Z Z L.L.L.L.L.L.L.L.L.L.",
"L.L.L.L.L.L.L.L.L.L.P M I I N N x 3 O.n P L h V.Z.Z.O.i.N.i.i.i.p.' p.O.i.i.p.] i.o.E t ! W * =.k.=.U U q Z L.L.L.L.L.L.L.L.L.L.",
"L.L.L.L.L.L.L.L.L.L.n A A N N c x 3 o.n L M e Z.Z.Z.$.p.i.i.p.p.i.[ p.%.i.i.i.} i.o...u W W - A Z B Z Z A B L.L.L.L.L.L.L.L.L.L.",
"L.L.L.L.L.L.L.L.L.L.L.L.N c n B x 3 o.K K L 8 Z.Z.p.$.i.i.i.&.i.u.| i.:.i.i.i.} i.o.o.i ( W * x Z S v x L.L.L.L.L.L.L.L.L.L.L.L.",
"L.L.L.L.L.L.L.L.L.L.L.L.B c.P U x 3 o.K K K 7 Z.Z.i.O.i.u.p.+.O.p.m.i.:.i.i.i.] p.o.o.W E W * M c.U z x L.L.L.L.L.L.L.L.L.L.L.L.",
"L.L.L.L.L.L.L.L.L.L.L.L.N c.U U c 3 o.o.p.Z.V Z.C.i.w.i.i.p.+.O.p.m.u.:.p.i.5.} p.o.o.! W W % Z U U B x L.L.L.L.L.L.L.L.L.L.L.L.",
"L.L.L.L.L.L.L.L.L.L.L.L.m U U N x * o. .p.Z.V Z.C.i.i.i.i.5.N.$.i.:.i.O.i.p.O.] i.o.X.! ! W * A U M B x L.L.L.L.L.L.L.L.L.L.L.L.",
"L.L.L.L.L.L.L.L.L.L.L.L.< B N B c % #. .p.Z.V Z.N.i.i.i.u.$.i.+.i.) i.O.i.i.$.} i.o.o.W ~ ! * A L z x q L.L.L.L.L.L.L.L.L.L.L.L.",
"L.L.L.L.L.L.L.L.L.K.: < < , U U A & o.o.p.i.V Z.i.i.i.i.' $.i.i.i.) i.$.i.i.>.] i.o.o.! ~ W % A A A $ % = = 4 L.L.L.L.L.L.L.L.L.",
"L.L.L.L.L.L.L.L.L.=.g.k.k.k.k.g.U * o.M.p.i.l Z.i.i.i.i.} O.i.p.i.) p.O.i.p.$.} i.o.o.~ W W % A S.k.k.U U B Z L.L.L.L.L.L.L.L.L.",
"L.L.L.L.L.L.L.L.L.U S.k.k.k.k.j.B & o.i.e.p.V Z.i.i.i.i.} O.i.i.i.) p.| i.O.$.} i.o.o.W R ! % Y k.k.k.k.=.Z Z L.L.L.L.L.L.L.L.L.",
"L.L.L.L.L.L.L.L.L.U k.k.k.k.k.M A = o.p.O.p.C Z.i.i.i.i.} 4.i.i.i.) i.! i.$.$.} i.o.o.E ~ ! % U k.k.k.U A Z Z L.L.L.L.L.L.L.L.L.",
"L.L.L.L.L.L.L.L.L.U k.k.k.k.k.=.G 2 o.i.i.o.l i.i.p.p.p.} i.p.i.i.) M.( i.;.%.| i.o.o.W ~ W % D k.k.d.=.Z A A L.L.L.L.L.L.L.L.L.",
"L.L.L.L.L.L.L.L.L., U j.U Z Z Z A 3 o.i.i.! f i.i.p.p.p.] i.p.i.i._ u.$.#.$.$.{ i.o.o.! ~ W * U A A Z Z Z Z q L.L.L.L.L.L.L.L.L.",
"L.L.L.L.L.L.L.L.L.L.L.L.U S.k.g.v 3 o.i.i.O.f i.+.p.i.i.] i.i.i.p.) O.$.p.O.| { i.o.O.R a p * S k.k.U A L.L.K.L.L.L.L.L.L.L.L.L.",
"L.L.L.L.L.L.L.L.L.L.L.L.=.S.k.k.Z 2 o.i.i.O.f u.i.5.i.p.] i.i.u.i.) O. .u.E $.m n S.F.F.F.S.* k.k.k.M A L.L.L.L.L.L.L.L.L.L.L.L.",
"L.L.L.L.L.L.L.L.L.L.L.L.U k.k.J A 3 o.i.i.i.f %.i.O.i.i.} i.i.$.i.) q.p.+.! 6.a.6.a.a.a.s.s.* k.S.k.J A L.L.L.L.L.L.L.L.L.L.L.L.",
"L.L.L.L.L.L.L.L.L.L.L.L.J k.k.d.Z 2 o.p.i.i.f $.i.O.p.p.} i.i.O.i.) p.p.q.z.a.a.m a.a.a.n s.* f.k.k.=.A L.L.L.L.L.L.L.L.L.L.L.L.",
"L.L.L.L.L.L.L.L.L.L.L.L.=.k.k.=.A 3 ..i.i.i._ $.i.O.i.p.} i.u.$.p.>.p.i.i.+.K K K K L L K K * U k.k.M Z L.L.L.L.L.L.L.L.L.L.L.L.",
"L.L.L.L.L.L.L.L.L.L.L.L.J U J $ % 3 o.p.i.p.{ $.i.O.u.p.} i.p.p.i.N.p.i.i.i.+.l :.Q C n n n * & = Z Z A L.L.L.L.L.L.L.L.L.L.L.L.",
"L.L.L.L.L.L.L.L.L.v Y P P I N Z x 3 o.i.i.i.} $.i.R i.i.} i.O.p.i.i.i.i.i.i.M._ +.! W p p p * x h.Y U P N x 1 L.L.L.L.L.L.L.L.L.",
"L.L.L.L.L.L.L.L.L.A b.Y U U I N x * o.p.$.i.] $.i.` i.i.] i.i.i.i.p.i.i.p.i.i.r $.o.o.! W W * n b.U P Y Z < 4 L.L.L.L.L.L.L.L.L.",
"L.L.L.L.L.L.L.L.L.A c.P I P P Z x * o.i.p.p.} $.i.+.i.i.] i.i.i.i.p.p.i.i.i.<.f O.o.o.W R W $ b b.P U P N x 4 L.L.L.L.L.L.L.L.L.",
"L.L.L.L.L.L.L.L.L.Z U P M M Y N x * o.:.p.p.| $.i.i.i.i.] i.i.i.i.u.p.p.i.4.u.y O.o.o.W W W & b U P U P Z x 3 L.L.L.L.L.L.L.L.L.",
"L.L.L.L.L.L.L.L.L.U P U P U U N x 3 o.o.p.i.i.O.i.i.i.i.} i.i.i.i.N.i.i.i.O.p.f $.o.o.W W ! & b U P Y N Z x x L.L.L.L.L.L.L.L.L.",
"L.L.L.L.L.L.L.L.L.N U P I P N N x 2 o.o.Q o. .o.o.o. .o.j o.o.o.o.$.o.o.O.T X.9 Q ..W W W ! % b I U N N c c x L.L.L.L.L.L.L.L.L.",
"L.L.L.L.L.L.L.L.L.N v 4 c x c x x L.X @ . @ @ @ @ @ @ @ @ @ @ . @ @ @ @ @ @ @ @ @ @ . . @ . L.x d d x x 3 3 x L.L.L.L.L.L.L.L.L.",
"L.L.L.L.L.L.L.L.L.L.L.L.L.L.L.L.L.L.L.L.L.L.L.L.L.L.L.L.L.L.L.L.L.L.L.L.L.L.L.L.L.L.L.L.L.L.L.L.L.L.L.L.L.L.L.L.L.L.L.L.L.L.L.L."
};
