/* XPM */
static char *skeleton1741868907[] = {
/* columns rows colors chars-per-pixel */
"64 64 213 2 ",
"   c #000000",
".  c #0A0907",
"X  c #0B0A0A",
"o  c #0F0704",
"O  c #110F0D",
"+  c #160D06",
"@  c #13110E",
"#  c #141312",
"$  c #191512",
"%  c #1E1A16",
"&  c #191919",
"*  c #2A1D14",
"=  c #221E19",
"-  c #211C16",
";  c #221407",
":  c #2D231B",
">  c #2E2216",
",  c #33241A",
"<  c #392B1E",
"1  c #37291C",
"2  c #242323",
"3  c #2E2721",
"4  c #2C2C2C",
"5  c #332B23",
"6  c #3A2D24",
"7  c #392E28",
"8  c #3B3129",
"9  c #333333",
"0  c #3D3D3D",
"q  c #563312",
"w  c #5E3A16",
"e  c #4D2A0E",
"r  c #433225",
"t  c #43352B",
"y  c #42382E",
"u  c #4C3A2D",
"i  c #483628",
"p  c #513B2E",
"a  c #4A3D33",
"s  c #443A30",
"d  c #64401E",
"f  c #77461B",
"g  c #5E422C",
"h  c #4E4135",
"j  c #4F4138",
"k  c #544235",
"l  c #5A4436",
"z  c #534539",
"x  c #5B4A3D",
"c  c #59473A",
"v  c #604D3F",
"b  c #765333",
"n  c #434343",
"m  c #4C4C4C",
"M  c #5E4E41",
"N  c #504C49",
"B  c #5B534E",
"V  c #535353",
"C  c #5D5D5D",
"Z  c #654F41",
"A  c #645244",
"S  c #6D5A4B",
"D  c #6A5648",
"F  c #715D4E",
"G  c #765A42",
"H  c #6E5E51",
"J  c #735E50",
"K  c #6F6156",
"L  c #746253",
"P  c #7A6555",
"I  c #7A6659",
"U  c #7E6B5D",
"Y  c #646464",
"T  c #6C6C6C",
"R  c #686667",
"E  c #766D69",
"W  c #757575",
"Q  c #7C7B7C",
"!  c #89521D",
"~  c #92561E",
"^  c #90581F",
"/  c #824D1B",
"(  c #8B5320",
")  c #9C5D21",
"_  c #945D27",
"`  c #A25F22",
"'  c #91663C",
"]  c #AD6724",
"[  c #B56D26",
"{  c #BE7127",
"}  c #C27429",
"|  c #C47A33",
" . c #816D5D",
".. c #816F63",
"X. c #837162",
"o. c #8B7564",
"O. c #887669",
"+. c #8D7A6C",
"@. c #8A7668",
"#. c #917B6A",
"$. c #8D7C71",
"%. c #817D7C",
"&. c #907E72",
"*. c #C3803C",
"=. c #81807E",
"-. c #938274",
";. c #9B8372",
":. c #94847A",
">. c #96897F",
",. c #9C897B",
"<. c #A08979",
"1. c #A6907B",
"2. c #D19A62",
"3. c #828181",
"4. c #8B8B8B",
"5. c #9D8D83",
"6. c #938D89",
"7. c #9D9087",
"8. c #918F90",
"9. c #939393",
"0. c #9B9B9B",
"q. c #AA9381",
"w. c #A1948B",
"e. c #AC9A8C",
"r. c #A49489",
"t. c #B59C8B",
"y. c #B99F8E",
"u. c #AA9D93",
"i. c #B59F91",
"p. c #BAA18E",
"a. c #ADA095",
"s. c #BCA391",
"d. c #B2A49B",
"f. c #B9A699",
"g. c #A5A5A5",
"h. c #ACACAC",
"j. c #B9ADA5",
"k. c #B4ABA6",
"l. c #B7B0AB",
"z. c #B3B3B3",
"x. c #BBBBBB",
"c. c #BCB7B4",
"v. c #C7AC9A",
"b. c #C9AE9B",
"n. c #C4A996",
"m. c #DDB59B",
"M. c #CBB09B",
"N. c #C3AFA2",
"B. c #C4B1A4",
"V. c #CDB4A3",
"C. c #C8B7AB",
"Z. c #D1B6A3",
"A. c #D5BDAC",
"S. c #DABEAB",
"D. c #DAB9A4",
"F. c #C0B7B0",
"G. c #C5BCB5",
"H. c #DBBFB1",
"J. c #E2BFA9",
"K. c #DCC0AE",
"L. c #CCC3BC",
"P. c #DAC9BD",
"I. c #D6C2B5",
"U. c #E2C5B3",
"Y. c #E6C9B7",
"T. c #E8C9B7",
"R. c #E6CBB9",
"E. c #E8CEBD",
"W. c #E8C7B4",
"Q. c #E9D0BF",
"!. c #E7D0BE",
"~. c #E3C3AE",
"^. c #CEC9C3",
"/. c #CBCBCB",
"(. c #C5C4C3",
"). c #D3CBC4",
"_. c #DACEC5",
"`. c #D3CECA",
"'. c #DCD2CB",
"]. c #DED0C7",
"[. c #D5D5D5",
"{. c #DEDAD6",
"}. c #D9D9D9",
"|. c #DCD7D2",
" X c #E9CFC0",
".X c #EAD3C4",
"XX c #E3D6CC",
"oX c #ECD6C9",
"OX c #EDDACD",
"+X c #E2D1C6",
"@X c #E4DAD3",
"#X c #EEDDD1",
"$X c #E3DAD4",
"%X c #F0DFD4",
"&X c #F2DFD8",
"*X c #EEE0D6",
"=X c #EFE3DC",
"-X c #E4E0DD",
";X c #F1E1D6",
":X c #F3E5DB",
">X c #F4E8DF",
",X c #E3E3E3",
"<X c #E9E9E9",
"1X c #EAE7E4",
"2X c #F5EAE3",
"3X c #F3EEE9",
"4X c #F8EFE9",
"5X c #F7F0EB",
"6X c #F9F2ED",
"7X c #F7F6F4",
"8X c #FAF5F2",
"9X c #FCF9F6",
"0X c #FDFBFA",
/* pixels */
"                                                                                                                                ",
"                                                                                                                                ",
"                                                                                                                                ",
"                                                                                                                                ",
"                                                                                                                                ",
"                                                      @ 5 a z j 8 % .                                                           ",
"                                              . z S P 5.C._.XXXX_.j.+.S A $                                                     ",
"                                          . S I M.OX:X:X:X2X2X2X2X2X4X6X<X:.S $                                                 ",
"                                        y L S.Y.T.%X:X;X:X>X2X2X2X2X2X5X6X6X7XU c                                               ",
"                                      h o.Y.Y.Y.T.#X;X:X:X:X>X2X2X2X2X2X4X6X6X9Xr.A                                             ",
"                                    >  .Y.Y.Y.Y.Y.oX;X;X;X>X>X:X2X2X2X_.2X6X6X6X9X7.h                                           ",
"                                    S Y.Y.Y.Y.Y.T.R.:X;X;X:X:X2X2X2X2X2Xu.6X6X6X6X0XL .                                         ",
"                                  j p.Y.Y.Y.T.W.Y.Y.*X;X:X:X:X>X>X2X2X2X2X2X5X6X6X8X`.A                                         ",
"                                  S Y.Y.Y.T.T.Y.Y.Y.R.;X;X:X>X:X>X>X2X>X2X2X4X6X6X8Xw.H                             9 2         ",
"                                $ ;.Y.Y.Y.T.T.T.T.T.Y.R.;X;X:X:X>X2X>X2X4X2X5X5X6X8Xk.w.$                       n m m m         ",
"                                A K.Y.T.R.Y.W.;.F o.o.U A P B.:X:X>X2X2X2X2X4X6X*X:.:.$Xh                   m m m 0.0.m .       ",
"                                S Y.Y.Y.Y.Y.Y.T.Y.Y.l * * * , k q.2X2X2X2X2X#XZ 6 * > [.S                 2 V g.}.<Xz.m n       ",
"                                F R.Y.Y.Y.Y.T.T.Y.n.< * * * * * , p &.2X2X2XD * * * * w.S                 m /.}.,X[.z.W m       ",
"                                U .XY.Y.Y.Y.T.Y.T.L * * * * * * * * , ..2X2Xr * * * * 5.S               . V [.}.<Xz.z.h.m 2     ",
"                              . O.oXE.Y.T.Y.Y.Y.T.l * * * * * * * * * p 2X2X1 * * * * $.H               9 R [.}.,Xz.z.z.m       ",
"                              . +.oX.XE.Y.Y.Y.Y.U.r * * * * * * * * * p 2X>X1 * * * * $.S               m [.}.<Xx.z.z.W 9       ",
"                                X.OXoX!.R.Y.Y.R.v., * * * * * * * * * D :X2X< * * * * :.S             . Y }.[.<Xz.z.h.m         ",
"                                L ;XOXY.!.Y.T.Y.D.i * * * * * * * * , r.2X2Xu * * * * k.S             n z.}.,X/.z.z.Q 0         ",
"                                S :X#XOX.X+XR.Y.T.B.c r * * * * * * u &X:XXX,.< r u J 7XS             m x.}.<Xz.z.z.m           ",
"                                x XX;X#XoXoXY.Y.Y.oXoXC.F l r > * 6 :.:X:XM e.@X@X2X4X1Xk           # Q }.}.}.z.z.4.0           ",
"                                O @.>X;XOXoXm.Y.T.E.oXOXOX;XP.t.;.N.;X:X].> < 2X2X2X6Xj.=           m /.}.<Xx.z.z.m             ",
"                                  D _.:X;XoXoX!.W.J..XoXOXOX%XOX&X&X;X:Xx * * j.2X2X8XX.            V [.[.,Xz.z.9.n             ",
"                                    S +X:XOXW..XR.Y.Y.!.OXOXOX;X&X%X;X#X> * * Z >X2X0XF           2 0.[.<Xx.z.z.V               ",
"                                    5 L >X;XR.oX.X~.W.Y.Y.oX#X#X%X%X;X;Xc * i L.2X2X9XD           m [.[.<Xz.z.0.n               ",
"                                      S 2X:X;XOXoXY.Y.Y.Y.Y.oXOXP..X;X*X%X;.P.>X6XL.).S           C [.}./.z.z.V                 ",
"                                      @ u.2X:X#XOX.XR.Y.Y.~.Y.Y.<.T.E.;X:X:X:X>X8XL z .         9 z.[.<Xz.z.g.m                 ",
"                                        S 2X>X;XOX.Xm.!.Y.Y.Y.p.S T.T.&X#X;X:XXX4XX.            m [.[.}.z.z.V .                 ",
"                                        # m V V 6.+XE.!.K.#.L {.u.q.Y..XB.:X:X*X2XI           . W [.,Xz.z.h.m                   ",
"                                          m (.x.9.m O.x O   -.6Xd.7 M.Y.B.*X*XL.+.S           0 /.[.<Xz.z.Y .                   ",
"                                    2 m 2 2 Q h.h.Q 0       q.R.&.  % S S S S z -     q ! ;   V [.}.(.z.h.m                     ",
"                                      & h.[.(.g.0.g.m x M h v.S.F x M S F @           ^ } ` ~ ' (.,Xz.z.T .                     ",
"                                      # R 9.9.x.8.9.m 9X0X7X-.5.0X0X0XL.{.(.a       i ) } } | [ ~ _ 1.z.m                       ",
"                                      R R 3.h.3.0.m &.R.R.R.K.K.Y.R.T.Y.u.6X@XA     %.b ^ ) [ 2.OX*.) ^ d                       ",
"                                    m g.[.(.C V Y m X.o.@.#.S L #.X.+. .B.oXoXA.M   R 6...G ^ ~ ] } } } ] ~ !                   ",
"                                    . 2 m V 9.4.m D ).G.l.`.r.u.).j.L.^.S v.Y.Y.S V C L 0X5.v g f ~ ~ } } } !                   ",
"                                      S 1X^.V m 4 A ;X*X;X*XP.].;X*X%X;Xh 3 v.y.l.Q c.C..X{.7X8XL.6 o ! ~ ` +                   ",
"                                      L p.d.D 2   % ;.K.~.v.H L Z.~.S.o..   @ V 9.0.H T.p. .t.U.Y.<.      q                     ",
"                                      :.7X6Xz     A >.S D F 5.7.S S S r..       n Y S ;.d.0X8XG.S 6                             ",
"                                      ,.:X>Xz     A 9X<X$X8X'.5X7X'.8X8X        . W Y D L y.Y.Y.v.                              ",
"                                      o.Y.T.v     7 K.E.E. XX.e.E.E.E.t.          m Q L.0X2X..S A                               ",
"                                      L Y.Y.S 5     F Y.T.q.S :.A.Y.V.s           . h.L N.R.R.P                                 ",
"                                    . A M.s.S X.L $   S I ^.S |.X.S z             9 W a w F s.F                                 ",
"                                    +.<X{.c.$X0XP Y.7 :.2X2Xx $.4X2X7             0   o q e                                     ",
"                                  . j._.2X].C.;X-.t.5 n.E.S.: 8 E. XK                   .                                       ",
"                                    ,.S.A.Y. .Y.Z.@ y t.S.,.. . s.i.E                                                           ",
"                                    J R.;.Y.L y.y.5 L F.5XS   n W Q 4.3..                                                       ",
"                                      M a 3 .   . 3 7X,.+.$   9 W W 0.n                                                         ",
"                                                  A 6X3X-.      &.:X:X7             .                                           ",
"                                                  @.T.T.S     . L T.T.8 .                                                       ",
"                                          .   . O V.T.Z.:   .   A U.K.% .   .     .   . .   .                                   ",
"                                    .   .     2 J &.<.F . .   : ^.3X<XG.M M V . .   .     .         .                           ",
"                              .   .     .     ..2X2Xg.u.M 7 & = U.Y.B.@X#Xr.V.a . .   .   . .   .   .                           ",
"                                  .   .   . . &  .<.H. X Xe.>.3 X # O O X . . X   .   . .   .                                   ",
"                                      .     . . .   . . X X X . . .   . . . .   . .   .   .                                     ",
"                                        .           .   .     .   .   .     .     .         .                                   ",
"                                                  .         .       .     .                                                     ",
"                                                                                                                                ",
"                                                                                                                                ",
"                                                                                                                                "
};
