/* XPM */
static char *wall1741869157[] = {
/* columns rows colors chars-per-pixel */
"64 64 30 1 ",
"  c #17030C",
". c #17030E",
"X c #16050D",
"o c #19040B",
"O c #18050B",
"+ c #18030C",
"@ c #18040D",
"# c #19040D",
"$ c #19050E",
"% c #18040F",
"& c #292927",
"* c #282828",
"= c gray16",
"- c #2A2829",
"; c #282A29",
": c #28282A",
"> c #29292B",
", c #2A2A2A",
"< c #494947",
"1 c #4A4947",
"2 c #484848",
"3 c #494949",
"4 c #4A4849",
"5 c #484A49",
"6 c gray29",
"7 c #717171",
"8 c #737172",
"9 c #717372",
"0 c #727272",
"q c gray45",
/* pixels */
"33332qq**2333qq3,*%$$X**,*qqq77qq7333333333333333333333333333333",
"333327q**3333qq3*,$$ $***,qq7qq77q332332323333333333332333333333",
"333qqqq**3333333** $$ 33,***q7qqq72333333333333qq333333333333333",
"333qqqq**3333333**   $33*,**7q7q7q2333333333333qq333333333333333",
"3333333333332333*,$$$$33633333qq33333333333333333333333333333333",
"3333333333333333**$$$$63333333qq33333333333333333333333333333333",
"2333333333333***$  $ $*,*,33333333333333333333333333333333333333",
"3333333333333***% $ $ ,*,*33333333333333333223322332233333333333",
"3333333333333,*$$ $ $ **,**,336333333333333333333333333333333333",
"3333333333361**$ X $ $,***,*333333333333333333333333333333333333",
"3333333366336**$$X+$$$**,**,333333333333333233333333333333333333",
"333353336**,*,**  $+$ ***,,*333333333333332332333333333333333333",
"333333366*,*,*,,%$$$$$*,,*,*333333333333333333333333333333333333",
"3333333*;,*,*,,***$++$,*333633333333333333333qq33333333333333333",
"3333333*,;*****,*, $$+**333333333333333333333qq23333333333333333",
"633333333353636*  $ $+$$3333363333333333333qqq723333333333333333",
"333333333333333*%$$ $+$ 3333333333333333332qqqq33333333333333333",
"333333333333336*** $ $ $3333333333333333333333333333333323333333",
"333333333363333,*,$+ $$ 3333333333333333333333333333333333233333",
"333333333333333*,*$$$ $%3333333333333333333233333333333333333333",
"325233333333336*,* $ $+$3333333333333333333333333333333333333333",
"3qq7q23333333,*,**$ $ **3333333333333333333*,**3333333333363333*",
"3q7qq33333336***,* $ $**3333333333333333633**,*3333333333336333*",
"2qqqq33333333,,*,,$ $$,,3333333333333333333*,*,3333333333336333*",
"233*,*,*,*,**,,,*,$$X+***,333333333333333*,*,**,*33333333333333*",
"333**,*,*,*,,*,*,*$+$$**,*333333333333333,*,*,,*,33333333366336*",
"33333*,*,*,*,,* $  $$$**,**,*,*,333333333*,*,,*,*,,33333333**,*,",
"33333,**,,*,***$%$% $%***,**,*,*333333333,*,**,*,**63336333*,*,*",
"*3333****,*,*$$  $ $ $$ %$***,*,,*****,***,**,***,*,**,,,,***,*,",
"*3333***,****$ $$ $    $$$**,********,*,***,,***,*,****,****,*,*",
"$X+$$$ $$X$ $+$+ $ $$$$ $$ $$$$+$$ $ $%$$ $ $$ $ $$$$ Xo%$$ $+$$",
"$$$+$$$ $$+$$$+$%$$+   $$+$+%$+$$$$ $$$$ $ $$$$ $ $$+$+$$$ $+$$$",
"$   $    $   $  $ $$$ $  $  $   $$ $+ $ $ $ $ $ $ $ %+$+$+   $  ",
"     $  $   $++  $ $+$ $$    $+ $   X$ $%+ $ $$% $ $ $ X $  $  $",
"qqq7qqq7qq7qqq7q*,**$ $ **7qqqq7q7q7 X$ $$%**qq**6333333333qq7qq",
"qq7q7q7qqqq7qqqq,*** $  **q7qq7qqq7q$$ $$$$**qq**3333333333q7qqq",
"q7q7qqqq7q7q7qq7,,*,+$$$,*qqq7qqqqqq $  $+$**qq,*3333333322qqq77",
"7qq23**qq7q7q***,*% $ &**,337q******$  $$****,*633336333322q7qq*",
"7qq23**qqq77q***,*++$X*,**33qq**,*,* $X$$*,****633336333333qq7q*",
"q7q23332222qqqqq*,*,$$,***qqqqqq*,****$ $**,*6333333333333222q7q",
"q7q33333333qqqqq,*,*$$****qqq7qq,****,$$ ****3333333333333332qqq",
"223333333333323qqq****333333****qq,*,*$$$****333333333333333332q",
"333333233333333qqq****333333****qq****$ $*,**333333333333333332q",
"3333333333333***qqq7,*333333qqqqqq36** $$,*633333333333333333232",
"3333332333333,**qqqq**633333qqqqqq33*, $$**333333333333333333333",
"3333333336333*,3qq**qq36333322qq22**,*$+$33333333333333333333333",
"3333333333633**3qq**qq33333322qq33***,$$$33333333333333333333333",
"333333333333363332333333333333333333,*$+$33333333333333333333333",
"333333333333333333333333333333333633** $ 33233353333333333322332",
"33333333333333333333,*,*36363333**33**$ +33333333333333333333333",
"33333333333333333333*,*,33333333,*33*, $$33333333336332333333333",
"33333333333333333333,*,*33333333,*33,*$  33333333333333333333333",
"33333333333333333336**3233333333*,33,*%$$333633qq33333333333333q",
"33333333333333333333**3333333336,*33**$$ 633333qq33233333333333q",
"33333333333333333333**33333333***,33*, $$33336333qq2333332333333",
"33333333333333336336*,33333333*,,*33**$$ 33333333qq2333333333333",
"3332233233322333333333333312qq,***,*,*%$$33333333333333333333333",
"3333333333333333333333333252qq*,*,*,*,$$+33333333333333333333333",
"333333333333333333333333337qqq,*,*,***$ $*,**3333333333333333333",
"33333333333333333333333333q7qq***,*,** $$,*,*6333333333333333333",
"3333333qq33333333333333333qq*,*,36*,,*$$$****,*333333333333***,3",
"3333333qq333333333333333337q,*,*33,**,$$$**,,*,633333633333****3",
"323333333333332333333333332233*,*,*,**$$$*,*,*,**3333**,***qq363",
"333333333333333333333333333333,*,*,***$ $,*,*,*,*3336*,*,**qq333"
};
