/* XPM */
static char *warrior1741868701[] = {
/* columns rows colors chars-per-pixel */
"64 64 224 2 ",
"   c #000000",
".  c #0B0A0B",
"X  c #080707",
"o  c #110E0F",
"O  c #110F10",
"+  c #151214",
"@  c #1A1616",
"#  c #1C1A1A",
"$  c #1A1917",
"%  c #201F1D",
"&  c #22211F",
"*  c #252222",
"=  c #292526",
"-  c #2E2A29",
";  c #2B2827",
":  c #322E2E",
">  c #342F30",
",  c #353131",
"<  c #3B3535",
"1  c #3E3936",
"2  c #37322F",
"3  c #433D3B",
"4  c #453C3A",
"5  c #4C433E",
"6  c #45413E",
"7  c #5B4D3E",
"8  c #57493A",
"9  c #5F5039",
"0  c #624F34",
"q  c #625135",
"w  c #64533A",
"e  c #6E5A39",
"r  c #6A5637",
"t  c #735E39",
"y  c #795F3A",
"u  c #776037",
"i  c #77613A",
"p  c #78603A",
"a  c #3D444A",
"s  c #4C4542",
"d  c #4F4A43",
"f  c #4D494A",
"g  c #464445",
"h  c #514643",
"j  c #534A44",
"k  c #594D43",
"l  c #544D4A",
"z  c #5B4F4A",
"x  c #56514C",
"c  c #5B534C",
"v  c #5B5142",
"b  c #454D53",
"n  c #4F4F51",
"m  c #4E5155",
"M  c #5A5450",
"N  c #5E5A54",
"B  c #575658",
"V  c #645443",
"C  c #685743",
"Z  c #6B5944",
"A  c #63554C",
"S  c #625A4E",
"D  c #695A4B",
"F  c #715E49",
"G  c #635C53",
"H  c #6A5D53",
"J  c #625D5B",
"K  c #665750",
"L  c #705E52",
"P  c #74634A",
"I  c #7B644A",
"U  c #79684A",
"Y  c #6A6154",
"T  c #67625C",
"R  c #6C645B",
"E  c #6B665B",
"W  c #746455",
"Q  c #706A5E",
"!  c #7A6A58",
"~  c #7C7157",
"^  c #595E62",
"/  c #5B6569",
"(  c #606B6F",
")  c #6B6864",
"_  c #736D63",
"`  c #726D6B",
"'  c #77766F",
"]  c #7A756C",
"[  c #7C7566",
"{  c #616B71",
"}  c #6C7476",
"|  c #7E7A75",
" . c #777672",
".. c #856B36",
"X. c #987935",
"o. c #846C4D",
"O. c #826B58",
"+. c #867159",
"@. c #947652",
"#. c #967854",
"$. c #997752",
"%. c #8D7963",
"&. c #837C6C",
"*. c #877361",
"=. c #927B65",
"-. c #987F69",
";. c #827C75",
":. c #837E7B",
">. c #B58B2A",
",. c #BC912B",
"<. c #A68233",
"1. c #BA8F33",
"2. c #C79731",
"3. c #C99D2D",
"4. c #DEA929",
"5. c #DDA826",
"6. c #E4AC28",
"7. c #EBB224",
"8. c #F5BB24",
"9. c #E5B233",
"0. c #A0845F",
"q. c #89826F",
"w. c #9B8867",
"e. c #868172",
"r. c #8B8472",
"t. c #89857C",
"y. c #89857B",
"u. c #918C79",
"i. c #9C8C72",
"p. c #97927D",
"a. c #9B937C",
"s. c #9D9177",
"d. c #9D9567",
"f. c #A2896E",
"g. c #A68C72",
"h. c #AD9174",
"j. c #A99E7E",
"k. c #B49877",
"l. c #BCA07C",
"z. c #9A8858",
"x. c #E8BB46",
"c. c #C09F7E",
"v. c #C3A37E",
"b. c #C8A57F",
"n. c #E8C257",
"m. c #EFD176",
"M. c #8A8784",
"N. c #928D89",
"B. c #928D86",
"V. c #9B9682",
"C. c #9D9983",
"Z. c #979389",
"A. c #8A9696",
"S. c #8C9897",
"D. c #9F9B95",
"F. c #969A95",
"G. c #A49D86",
"H. c #A09D96",
"J. c #98A29B",
"K. c #ADA88C",
"L. c #B3AA8B",
"P. c #A9A59A",
"I. c #ACA995",
"U. c #B2AC94",
"Y. c #B9B598",
"T. c #B9B38F",
"R. c #A6AEA3",
"E. c #ABABA6",
"W. c #B1ACA6",
"Q. c #ABB2A5",
"!. c #B1B3A6",
"~. c #B6B2AA",
"^. c #BBB6AD",
"/. c #B9BAAB",
"(. c #BDBAB0",
"). c #BCB7B1",
"_. c #ADB5B4",
"`. c #CCAA84",
"'. c #C8A781",
"]. c #D1AE86",
"[. c #D4B286",
"{. c #D7B48A",
"}. c #D8B58A",
"|. c #D9B689",
" X c #C8B997",
".X c #D7BC92",
"XX c #C2BEA6",
"oX c #C1BCB3",
"OX c #BEC3AD",
"+X c #DCC697",
"@X c #CBC396",
"#X c #E9CE93",
"$X c #FBE188",
"%X c #C4C0A2",
"&X c #C3C2AD",
"*X c #CECBAA",
"=X c #CBC7A4",
"-X c #D2CDA9",
";X c #DAD4AC",
":X c #C5C2B5",
">X c #CAC5B4",
",X c #C5C1B8",
"<X c #CAC8B8",
"1X c #D2CCB6",
"2X c #DCDBBB",
"3X c #D9D6B8",
"4X c #E7D4A8",
"5X c #E4DDB4",
"6X c #E5CEA2",
"7X c #E4E2BD",
"8X c #EDE6BB",
"9X c #F1E5B8",
"0X c #F5EAAC",
"qX c #BFC3C4",
"wX c #DBD8C3",
"eX c #DCDDD5",
"rX c #CACFCC",
"tX c #E9E6C3",
"yX c #F4F2C5",
"uX c #F3F1CE",
"iX c #DFE3E3",
"pX c #E4E6E4",
"aX c #F6F7EC",
"sX c #FBFBF1",
/* pixels */
"                                                                                                                                ",
"                                                                                                        u.-                     ",
"                                                                                                      s 8XyX#                   ",
"                                                                                                      2XR.J.%X                  ",
"                                                                                                    $ 7XR.S.2X*                 ",
"                                                                                                    5 &XJ.S.S.e.                ",
"                                                                                                    R !.J.S.S.%X                ",
"                                                                                                    M Q.P.S.S.5X                ",
"                                                                                                    1 OXR.S.A.7X                ",
"                                                                                                    ; <XR.R.A.2XX               ",
"                                                                                                    % wXR.Q.A.3XX               ",
"                                                                                                    O aX<XOXA.<X+               ",
"                                                                                                    . sXpXpXA.!.&               ",
"                                                                                                      uXpXaXpX!.-               ",
"                                                                                                      tX_.aXiXpXs               ",
"                                                                                                      eXeX2XrXpXT               ",
"                                                                                                      %XpXaXS._.'               ",
"                                                X .                                                   I.R.eXpX_.K.              ",
"                                                Y 1                         @                         e.Q.Q._.iXR.              ",
"                                  X             U.Y.3 .   # G E G 1 +       u..                       Q Q.R.A.S.rX              ",
"                              [ H ;XG.&.G       [ G R q.U.*.oXrX<X<XwXXXj a.[ @                       x /.R.S.A.5X              ",
"                          , p.L.o.#.@.#.f.[ x 2 - u.R H k K Z.oX,X,XW.).;.G u.                        < OXR.J.A.tX              ",
"                        + Y.C I #.$.#.@.o.@.x o.V.T.x Q H s J r.R _ W.oXI.<                           ; <XR.J.A.tX              ",
"                        = K.C o.#.I $.@.C o.I K j S v 1X` :.x.1.5.9.m..X$XY T.-                       $ 2XR.) A.3X.             ",
"                      + _ c =XC o.$.#.I F P #.s V G x 1X` ) 8.K c c X.5.8 j L.=                       X 7X_ a.C.I.$             ",
"                  X , 5X].Q Z C F #.@.#.@.@.F 8 C s 8 3XM.J 7.G.d.d.z 7 ~ C H K..                     X E [ U.f ' &             ",
"                3 6X|.|.+.;.r.;XC P Z @.#.Z h k h g j *XJ ) 7...h.{.h.v.6Xk ~ Q                         I.K.a.s.f < . R         ",
"              G +X[.h.|.|.[.H ~ C C C Z Z 7 s 6.1.<.d j Z.y.j 7.h.[.[.|.;XV k w D                 > V.6 [ s.O.A u.l L.R         ",
"            d 4X}.}.}.}.}.k.x 5 k Z C C C 6 M ).(.1Xs j Y.e.e 3.:.N.>XoXj C V *.;XQ               X d A r.G c d s s 3           ",
"          O 8Xf.'.{.}.|.].;X5XXXZ 5 C 6 V d ).,X,X:X7Xs 5 /.x 4.O.g.O.G.k 5 j s c.yXX                 @ ) N c d < =             ",
"          Y .X}.`.A `.}.|.k w 8 h S 6 j 6 ] ,X,X,X(.:X3Xs s u.5.,.>.8...k k %.O.w.5X<   X X             j  X] _ [               ",
"        X *X|.h.].{.g.[.6Xy y w p.G S v d 3X,X,X,X:X,X,X7X5 g 8 w y e z H h K [.|..X%X5X8XY %X_ > s X   U.k.k.*.=.5             ",
"        < ] |.|.[.b.[.[.5Xp p q 3Xf s h uXoXoX5XtXwX,XoXoXtXh =X,XoX^.<Xs -.].}.+X6X|.}.`.oXN.wXj C.;XS -.=Xk.W W =   X         ",
"        3 8X;.A %.b.b. Xc u p q ;. .{ l wXP.wXy.:.D.:.~.,XoXG.oX,X~.W.1Xf 5X}.}.{.{.v.f.+.&.1X2Xc c c g.[.=Xh.g.=.4             ",
"        3 yX' <Xe.P.2X*Xe p t q 8 U.^ n tXoX*XM.H.H.H.Z.H.oX_ ~. .M.) I.  + *.{.|.[.`.{.c :.>X>XG d c [.v.&.*.W W z             ",
"        , T.t.e.| 3XI.7 p p r q y =X( ( 3XoXP.H.D.D.H.H.H.H.M H.H.D.J 3       ;X.X{.l.|.J ;.:XP.c c c [.`.U.}.h.*.h             ",
"        Y.l s | :X5X;.p i y q q y j Z.B G oX:XJ D.D.M.D.D.D.;.M.D.N.y.X         G.4X|.|.W (.wX| j c Y h.`.g.g.%.=.3             ",
"        C.[ c Y c x e.r p i q q p y 2X{ ^ ).:XH.J B.` D.D.s D.N.M.| =             < XX9X X<XU.%XC.-X3X-   8 W &.,               ",
"        5 s.E d v G.j t i i q r i e c N ^ f :.Z.Z.H.H.T b b | :.N.:                   # 4 j e.M = *         N k h               ",
"        # L.x l c r.P i u u q y i u 7XO.=.i.g.&.) M g g g d s g .                                           Y h 4               ",
"        K.|.'.{.}.k.7 t r e 0 u q e rX/ n f d h k C F O.r y ;X                                                                  ",
"      X 8X}.c.! }.}._ @ w 0 0 y i e } { / ( b b b b ^ J t e ;X                                                                  ",
"      X +X}.=.f.}.}.9XX 9 0 r y y P { { / / b a b b rXn D.U ;.                                                                  ",
"      . c.'.}.}.}.v.4X: 0 0 r y r u.{ / / m b b b { f { / K.,                                                                   ",
"        z H O.'.[.c.s j.U q w u 9 Y.{ { / w 7 8 5 D { { { ( N +Xg                                                               ",
"          h %.H =.[.x s L.-Xq q q 1X/ { m y y q 3 5 Q } ^ b m.,.C                                                               ",
"            < l =.`.1 + d c q q q r.B N 0XQ t 9 $ + q s ^.).k 6.X.                                                              ",
"                A c       1 Z v u.:XW.x.>.P 0 8 1 8 8 %X~.~.D.` g                                                               ",
"                          + V.1X,X,X,Xt ,.8 0 4 8 q Q :X,X^.H.H.D.                                                              ",
"                          + 3X^.,X,XW.M.i V.P ~ 0 K.7X:XoXoXH.H.P.$                                                             ",
"                          V.>X:X,X,XD.D.Q ; 7XN U s &X,X,XoXH.H.D.u.                                                            ",
"                        $ tX,X:X:X(.D.D.l   . X Y.M <X,XoXoXH.B.k z.M                                                           ",
"                        l <XoX,X,XP.D.H.g     + X G <XoXW.,X` <.2.<.Y                                                           ",
"                      X e.:XE.,X,XN.' ` d         G <X,X~.F.1.2.j XXK.X                                                         ",
"                      & @XoXoXB...2.2.2. X        r.Y (.~...8.k ' ' ) Y.                                                        ",
"                      < $X<.z 7.8...j j G         6 $X6.7.8.<.] ' J ' u.c                                                       ",
"                      X D 4.4.8.l ' ' ' N.x       . @X6.5.3.l ` ' ' ' ' -X                                                      ",
"                      - u.) d d ' ' ' ' ' =X      . V.) T N B M l g 3 < -                                                       ",
"                      + = ; ; - > > > > : 2                                                                                     ",
"                                                                                                                                ",
"                                                                                                                                ",
"                                                                                                                                ",
"                                                                                                                                ",
"                                                                                                                                "
};
